DevCon_2019/Icons/SVG/icon_angle_left.svg

<svg height="14" viewBox="0 0 10 14" width="10" xmlns="http://www.w3.org/2000/svg"><path d="m1.09374739 15.4687656 6.06248555-6.06248557c.14583314-.14583315.32291574-.21874948.53124873-.21874948.208333 0 .38541559.07291633.53124873.21874948l.68749837.68749837c.14583314.1458331.22395795.3229157.23437444.5312487.01041648.208333-.05729137.3854156-.20312452.5312488l-4.84373845 4.8437384 4.84373845 4.8437385c.14583315.1458331.213541.3229157.20312452.5312487-.01041649.208333-.0885413.3854156-.23437444.5312487l-.68749837.6874984c-.14583314.1458331-.32291573.2187495-.53124873.2187495-.20833299 0-.38541559-.0729164-.53124873-.2187495l-6.06248555-6.0624856c-.16666611-.1458331-.2499994-.3229157-.2499994-.5312487s.08333329-.3854156.2499994-.5312487z" fill="#fff" fill-rule="evenodd" transform="translate(0 -9)"/></svg>

<?xml version="1.0" encoding="UTF-8"?>
<svg width="10px" height="14px" viewBox="0 0 10 14" version="1.1" xmlns="http://www.w3.org/2000/svg" xmlns:xlink="http://www.w3.org/1999/xlink">
    <!-- Generator: Sketch 52.6 (67491) - http://www.bohemiancoding.com/sketch -->
    <title></title>
    <desc>Created with Sketch.</desc>
    <g id="Page-1" stroke="none" stroke-width="1" fill="none" fill-rule="evenodd">
        <g id="MOBILE-425PX" transform="translate(-12.000000, -3242.000000)" fill="#FFFFFF">
            <g id="EVENT-AGENDA" transform="translate(0.000000, 3148.000000)">
                <g id="Group-9" transform="translate(12.000000, 85.000000)">
                    <path d="M1.09374739,15.4687656 L7.15623294,9.40628003 C7.30206608,9.26044688 7.47914868,9.18753055 7.68748167,9.18753055 C7.89581467,9.18753055 8.07289726,9.26044688 8.2187304,9.40628003 L8.90622877,10.0937784 C9.05206191,10.2396115 9.13018672,10.4166941 9.14060321,10.6250271 C9.15101969,10.8333601 9.08331184,11.0104427 8.93747869,11.1562759 L4.09374024,16.0000143 L8.93747869,20.8437528 C9.08331184,20.9895859 9.15101969,21.1666685 9.14060321,21.3750015 C9.13018672,21.5833345 9.05206191,21.7604171 8.90622877,21.9062502 L8.2187304,22.5937486 C8.07289726,22.7395817 7.89581467,22.8124981 7.68748167,22.8124981 C7.47914868,22.8124981 7.30206608,22.7395817 7.15623294,22.5937486 L1.09374739,16.531263 C0.927081282,16.3854299 0.843747988,16.2083473 0.843747988,16.0000143 C0.843747988,15.7916813 0.927081282,15.6145987 1.09374739,15.4687656 Z" id=""></path>
                </g>
            </g>
        </g>
    </g>
</svg>
